X:153
T:B153-  From hunger and cold
Q:1/4=120
L:1/4
M:6/4
K:Am
A|A3/2B/2^GAAB|cc3/2B/2ccd|e3/2d/2e^G2A|A3/2B/2^GAAA|\
A3/2B/2#GA2B|cc3/2B/2c2d|e3/2d/2e^G2A/2A/2|A3/2B/2GA2||A|\
B3/2c/2dBGG|cd3/2c/4d/4e2a|e3/2d/2e^G2A|A3/2B/2^GA2A|\
B3/2c/2dBGG|cd3/2c/4d/4e2a|e3/2c/2e^GGA|A3/2B/2^GA2|]
